src/assets/duotone/Danger.svg

<svg width="24" height="24" viewBox="0 0 24 24"  xmlns="http://www.w3.org/2000/svg">
<path opacity="0.4" d="M21.76 15.92L15.36 4.4C14.5 2.85 13.31 2 12 2C10.69 2 9.49998 2.85 8.63998 4.4L2.23998 15.92C1.42998 17.39 1.33998 18.8 1.98998 19.91C2.63998 21.02 3.91998 21.63 5.59998 21.63H18.4C20.08 21.63 21.36 21.02 22.01 19.91C22.66 18.8 22.57 17.38 21.76 15.92Z" />
<path d="M12 14.75C11.59 14.75 11.25 14.41 11.25 14V9C11.25 8.59 11.59 8.25 12 8.25C12.41 8.25 12.75 8.59 12.75 9V14C12.75 14.41 12.41 14.75 12 14.75Z" />
<path d="M12 17.9996C11.94 17.9996 11.87 17.9896 11.8 17.9796C11.74 17.9696 11.68 17.9496 11.62 17.9196C11.56 17.8996 11.5 17.8696 11.44 17.8296C11.39 17.7896 11.34 17.7496 11.29 17.7096C11.11 17.5196 11 17.2596 11 16.9996C11 16.7396 11.11 16.4796 11.29 16.2896C11.34 16.2496 11.39 16.2096 11.44 16.1696C11.5 16.1296 11.56 16.0996 11.62 16.0796C11.68 16.0496 11.74 16.0296 11.8 16.0196C11.93 15.9896 12.07 15.9896 12.19 16.0196C12.26 16.0296 12.32 16.0496 12.38 16.0796C12.44 16.0996 12.5 16.1296 12.56 16.1696C12.61 16.2096 12.66 16.2496 12.71 16.2896C12.89 16.4796 13 16.7396 13 16.9996C13 17.2596 12.89 17.5196 12.71 17.7096C12.66 17.7496 12.61 17.7896 12.56 17.8296C12.5 17.8696 12.44 17.8996 12.38 17.9196C12.32 17.9496 12.26 17.9696 12.19 17.9796C12.13 17.9896 12.06 17.9996 12 17.9996Z" />
</svg>

<?xml version="1.0" encoding="UTF-8"?>
<svg width="24" height="24" viewBox="0 0 24 24" xmlns="http://www.w3.org/2000/svg">
 <path d="m21.76 15.92-6.4-11.52c-0.86-1.55-2.05-2.4-3.36-2.4s-2.5 0.85-3.36 2.4l-6.4 11.52c-0.81 1.47-0.9 2.88-0.25 3.99s1.93 1.72 3.61 1.72h12.8c1.68 0 2.96-0.61 3.61-1.72s0.56-2.53-0.25-3.99z" opacity=".4"/>
 <path d="m12 14.75c-0.41 0-0.75-0.34-0.75-0.75v-5c0-0.41 0.34-0.75 0.75-0.75s0.75 0.34 0.75 0.75v5c0 0.41-0.34 0.75-0.75 0.75z"/>
 <path d="m12 18c-0.06 0-0.13-0.01-0.2-0.02-0.06-0.01-0.12-0.03-0.18-0.06-0.06-0.02-0.12-0.05-0.18-0.09l-0.15-0.12c-0.18-0.19-0.29-0.45-0.29-0.71s0.11-0.52 0.29-0.71l0.15-0.12c0.06-0.04 0.12-0.07 0.18-0.09 0.06-0.03 0.12-0.05 0.18-0.06 0.13-0.03 0.27-0.03 0.39 0 0.07 0.01 0.13 0.03 0.19 0.06 0.06 0.02 0.12 0.05 0.18 0.09l0.15 0.12c0.18 0.19 0.29 0.45 0.29 0.71s-0.11 0.52-0.29 0.71l-0.15 0.12c-0.06 0.04-0.12 0.07-0.18 0.09-0.06 0.03-0.12 0.05-0.19 0.06-0.06 0.01-0.13 0.02-0.19 0.02z"/>
</svg>
